!!!COM: Bach, Johann Sebastian
!!!CDT: 1685/3//-1750/7/28/
!!!OTL@@DE: Der Tag, der ist so freudenreich
!!!OTL@EN: This day is so joyful
!!!AGN: 4-Part Chorale
!!!SCT: BH 158
!!!SCT: BWV 294
**harm	**root	**kern	**kern	**kern	**kern
!	!	!bass	!tenor	!alto	!soprno
*	*Iorgan	*Iorgan	*Iorgan	*Iorgan	*Iorgan
*k[f#c#g#d#]	*k[f#c#g#d#]	*k[f#c#g#d#]	*k[f#c#g#d#]	*k[f#c#g#d#]	*k[f#c#g#d#]
*E:	*E:	*E:	*E:	*E:	*E:
*M4/4	*M4/4	*M4/4	*M4/4	*M4/4	*M4/4
*met(c)	*met(c)	*met(c)	*met(c)	*met(c)	*met(c)
*MM60	*MM60	*MM60	*MM60	*MM60	*MM60
*>[A,A,B]	*>[A,A,B]	*>[A,A,B]	*>[A,A,B]	*>[A,A,B]	*>[A,A,B]
*>A	*>A	*>A	*>A	*>A	*>A
I	4GG	8E	4G#	4B	4e
.	.	8D#	.	.	.
=1	=1	=1	=1	=1	=1
vi	4EE	8C#	4G#	4c#	4e
.	.	8BB	.	.	.
IV	4CC	8AA	4A	4.c#	4e
.	.	8GG#	.	.	.
ii	4AA	4FF#	4A	.	4f#
.	.	.	.	8d#	.
V7/IV	4GG	4EE	8B	4e	4g#
.	.	.	8d	.	.
=2	=2	=2	=2	=2	=2
IV	4CC	4AA	4c#	4.e	8a
.	.	.	.	.	8g#
V	4DD	4BB	8F#	.	4f#
.	.	.	16B	8d#	.
.	.	.	16A	.	.
I;	2GG;	2EE;	2G#;	2B;	2e;
=3	=3	=3	=3	=3	=3
V	4DD	4BB	4B	4d#	4f#
ii	8AA	8FF#	8A	8c#	4f#
vii7/IV	8BB	8GG#	[8G#	8B	.
ii	4AA	4AA	8G#]	[4c#	4c#
.	.	.	[8F#	.	.
V	4DD	4BB	8F#]	8c#]	4d#
.	.	.	16G#	16B	.
.	.	.	16F#	16A	.
=4	=4	=4	=4	=4	=4
vi	4EE	4C#	4.E	8G#	4e
.	.	.	.	8E	.
V	4DD	4BB	.	4B	4f#
.	.	.	8D#	.	.
I;	4GG;	4EE;	4G#;	4B;	4e;
=:|!	=:|!	=:|!	=:|!	=:|!	=:|!
*>B	*>B	*>B	*>B	*>B	*>B
I	4GG	4E	4G#	4B	4e
=5	=5	=5	=5	=5	=5
V7b	4DD	4D#	8F#	4B	4b
.	.	.	8A	.	.
I	8GG	8E	8G#	8e	4b
Vb	8DD	8D#	8F#	8f#	.
vi	4EE	4C#	4E	8g#	4cc#
.	.	.	.	8a	.
Vb	4DD	4D#	4B	8g#	8b
.	.	.	.	8f#	8a
!!linebreak: 3
=6	=6	=6	=6	=6	=6
I	4GG	8E	4B	4e	4g#
.	.	8D#	.	.	.
viib/V	4CC#	4C#	4c#	4e	4a#
V;	4DD;	4BB;	4d#;	4f#;	4b;
Vb	4DD	4D#	8B	4f#	4b
.	.	.	8A	.	.
=7	=7	=7	=7	=7	=7
I	4GG	8E	8G#	4e	4b
.	.	8F#	8A	.	.
Ib	4GG	8G#	8B	4e	4b
.	.	8E	8G#	.	.
IV	4CC	4A	8A	4e	4cc#
.	.	.	8G#	.	.
Vb	4DD	4D#	8F#	[4f#	8b
.	.	.	8B	.	8a
=8	=8	=8	=8	=8	=8
I	4GG	4E	4B	8f#]	4g#
.	.	.	.	4e	.
V	4DD	4BB	8.B	.	4f#
.	.	.	.	8d#	.
.	.	.	16A	.	.
I;	2GG;	2EE;	2G#;	2B;	2e;
=9	=9	=9	=9	=9	=9
IV	4CC	8AA	4E	4A	4c#
.	.	8GG#	.	.	.
viib	4FF#	4FF#	4F#	4A	4d#
Ib	4GG	4GG#	8BB	8B	4e
.	.	.	4E	4G#	.
vii7/V	8CC#	4AA#	.	.	4c#
Vb/V	8AA	.	16D#	8F#	.
.	.	.	16C#	.	.
=10	=10	=10	=10	=10	=10
V	4DD	4BB	4D#	8F#	4B
.	.	.	.	8G#	.
V7/V	4AA	4FF#	8C#	4F#	4A#
.	.	.	16D#	.	.
.	.	.	16E	.	.
V;	2DD;	2BBB;	2D#;	2F#;	2B;
!!linebreak: 3
=11	=11	=11	=11	=11	=11
vi	4EE	8C#	4G#	4c#	4e
.	.	8BB	.	.	.
IV	4CC	8AA	4A	4c#	4e
.	.	8GG#	.	.	.
ii	8AA	4FF#	4A	8c#	4f#
viib	8FF#	.	.	8d#	.
V7/IV	4GG	4EE	8B	4e	4g#
.	.	.	8d	.	.
=12	=12	=12	=12	=12	=12
IV	4CC	4AA	4c#	4.e	8a
.	.	.	.	.	8g#
V	4DD	4BB	8F#	.	4f#
.	.	.	16B	8d#	.
.	.	.	16A	.	.
I;	2GG;	2EE;	2G#;	2B;	2e;
=13	=13	=13	=13	=13	=13
V	4DD	8BBB	8D#	4B	4f#
.	.	8CC#	8E	.	.
Vb	4DD	8DD#	4F#	4B	4f#
.	.	8EE	.	.	.
V/V	4AA	8FF#	4F#	4A#	4c#
.	.	8EE	.	.	.
Vb	4DD	4DD#	4F#	4B	4d#
=14	=14	=14	=14	=14	=14
vi7b	4EE	4CC#	4G#	4B	8e
.	.	.	.	.	8d#
V/V	4AA	4FF#	8C#	4A#	4c#
.	.	.	16F#	.	.
.	.	.	16E	.	.
V;	4DD;	4BB;	4D#;	4F#;	4B;
V7b/IV	4GG	4GG#	4E	4B	4d
=15	=15	=15	=15	=15	=15
IV	4CC	4.AA	4E	4A	4c#
IV	4CC	.	4C#	4E	4A
.	.	8GG#	.	.	.
ii	4AA	4FF#	4F#	4A	4c#
V	4DD	8BB	4F#	4B	4d#y
.	.	8AA	.	.	.
=16	=16	=16	=16	=16	=16
Ib	4GG	8GG#	4E	4.B	4e
.	.	8EE	.	.	.
V	4DD	4BB	4D#	.	4f#
.	.	.	.	8A	.
I;	4GG;	4EE;	4E;	4G#;	4e;
==	==	==	==	==	==
*-	*-	*-	*-	*-	*-
!!!YOR: Ludwig Erk, Peters Editions of 1850, 1865; revised in light of
!!!YOR: Friedrich Smend, Peters Edition of 1932 & Albert Riemenschneider, 1941.
!!!RDT: 1987 September
!!!YER: 1995 March 1
!!chor2scor: -l 3 -s 0.6 -o %b.pmx
!!!ONB1: Text by Georg Niege; 16th Century secular melody, first appears 
!!!ONB2: in sacred use in Neu Catechismus-Gesangbüchlein, Hamburg, 1598. 
!!!YEC: Copyright 1994, David Huron
!!!YEN: United States of America
!!!SMA: 371 Bach Chorales, edited by Ludwig Erk, C.F. Peters
!!!PDT: 1850, 1865
